X:126
T:score21
L:1/8
Q:1/4=96
M:1/8
I:linebreak $
K:G
 (D |[M:6/8] G3 A3 | B3- B) z (B | c2 c B G B | A3) z z (D |$ E3 F3 | G A B E A c | B3 A3 | %8
[M:5/8] G3- G2) z |] %9
